fs/scale_fit_20_filled.svg

<svg viewBox="0 0 20 20" fill="none" xmlns="http://www.w3.org/2000/svg" height="1em" width="1em">
  <path d="M2 5.99805V14.0029C2 15.1075 2.89543 16.0029 4 16.0029H16C17.1046 16.0029 18 15.1075 18 14.0029V5.99805C18 4.89348 17.1046 3.99805 16 3.99805H4C2.89543 3.99805 2 4.89348 2 5.99805ZM13.1237 12.0797C12.9419 11.8719 12.9629 11.556 13.1707 11.3742L14.1693 10.5005H11.5C11.2239 10.5005 11 10.2766 11 10.0005C11 9.72436 11.2239 9.5005 11.5 9.5005H14.1693L13.1707 8.62678C12.9629 8.44494 12.9419 8.12906 13.1237 7.92124C13.3056 7.71342 13.6214 7.69237 13.8293 7.87421L15.8293 9.62421C15.9378 9.71915 16 9.85631 16 10.0005C16 10.1447 15.9378 10.2818 15.8293 10.3768L13.8293 12.1268C13.6214 12.3086 13.3056 12.2876 13.1237 12.0797ZM6.87629 7.92126C7.05813 8.12907 7.03707 8.44496 6.82925 8.6268L5.83073 9.5005H8.5C8.77614 9.5005 9 9.72436 9 10.0005C9 10.2766 8.77614 10.5005 8.5 10.5005H5.83072L6.82925 11.3742C7.03707 11.5561 7.05813 11.8719 6.87629 12.0798C6.69445 12.2876 6.37857 12.3086 6.17075 12.1268L4.17075 10.3768C4.06224 10.2819 4 10.1447 4 10.0005C4 9.85633 4.06224 9.71916 4.17075 9.62422L6.17075 7.87422C6.37857 7.69238 6.69445 7.71344 6.87629 7.92126Z" fill="#212121"/>
</svg>

<svg viewBox="0 0 20 20" fill="none" xmlns="http://www.w3.org/2000/svg" height="1em" width="1em">
  <path d="M2 5.998v8.005a2 2 0 0 0 2 2h12a2 2 0 0 0 2-2V5.998a2 2 0 0 0-2-2H4a2 2 0 0 0-2 2Zm11.124 6.082a.5.5 0 0 1 .047-.706l.998-.873H11.5a.5.5 0 0 1 0-1h2.67l-1-.874a.5.5 0 0 1 .66-.753l2 1.75a.5.5 0 0 1 0 .753l-2 1.75a.5.5 0 0 1-.706-.047ZM6.876 7.92a.5.5 0 0 1-.047.706l-.998.873H8.5a.5.5 0 0 1 0 1H5.83l1 .874a.5.5 0 0 1-.66.753l-2-1.75a.5.5 0 0 1 0-.753l2-1.75a.5.5 0 0 1 .706.047Z" fill="#212121"/>
</svg>
